images/light/icon-stash-pop.svg

<?xml version="1.0" encoding="utf-8"?>
<svg xmlns="http://www.w3.org/2000/svg" viewBox="0 0 16 22">
    <path fill="#424242" d="m11.4275,7.38941l-6.73,0l3.36459,-5.82741l3.36542,5.82741z"/>
    <path fill="#424242" d="m8.9745,4.945l0,7.79l-1.948,0l0,-7.79l1.948,0z"/>
    <path fill="#424242" d="m14.687501,11.955358l-1.079554,-6.821251c-0.076429,-0.458572 -0.477679,-0.821607 -0.955357,-0.821607l-9.30518,0c-0.477679,0 -0.878929,0.363036 -0.955357,0.821607l-1.079554,6.821251l0,4.776787c0,0.525447 0.429911,0.955357 0.955357,0.955357l11.464288,0c0.525447,0 0.955357,-0.429911 0.955357,-0.955357l0,-4.776787l0,0zm-3.133572,0.525447l-0.420357,0.850268c-0.162411,0.324821 -0.496786,0.535 -0.869375,0.535l-4.547501,0c-0.363036,0 -0.687857,-0.210179 -0.850268,-0.525447l-0.420357,-0.869375c-0.162411,-0.315268 -0.496786,-0.525447 -0.850268,-0.525447l-1.327947,0l0.955357,-6.687501l9.553573,0l0.955357,6.687501l-1.318393,0c-0.372589,0 -0.697411,0.210179 -0.869375,0.525447l0.009554,0.009554z"/>
</svg>

<?xml version="1.0" encoding="utf-8"?>
<svg xmlns="http://www.w3.org/2000/svg" viewBox="0 0 16 22">
    <path fill="#424242" d="m11.364995,7.38941l-6.73,0l3.36459,-5.82741l3.36542,5.82741l-0.00001,0z"/>
    <path fill="#424242" d="m8.974,4.945l0,7.79l-1.948,0l0,-7.79l1.948,0z"/>
    <path fill="#424242" d="M 10.5 5.258 L 5.5 5.258 L 10.5 5.258 Z M 6.046 4.313 L 9.954 4.313 L 6.046 4.313 Z M 13.608 5.134 C 13.532 4.676 13.13 4.313 12.653 4.313 L 9.954 4.313 L 10.5 5.258 L 12.777 5.258 L 13.732 11.946 L 12.414 11.946 C 12.041 11.946 11.716 12.156 11.544 12.471 L 11.554 12.481 L 11.134 13.331 C 10.971 13.656 10.637 13.866 10.264 13.866 L 5.717 13.866 C 5.354 13.866 5.029 13.656 4.866 13.341 L 4.446 12.471 C 4.284 12.156 3.949 11.946 3.596 11.946 L 2.268 11.946 L 3.223 5.258 L 5.5 5.258 L 6.046 4.313 L 3.347 4.313 C 2.87 4.313 2.468 4.676 2.392 5.134 L 1.312 11.955 L 1.312 16.732 C 1.312 17.258 1.742 17.688 2.268 17.688 L 13.732 17.688 C 14.258 17.688 14.688 17.258 14.688 16.732 L 14.688 11.955 L 13.608 5.134 Z"/>
</svg>
